docs/src/pages/og/_images/logo.svg

<svg width="120" height="24" viewBox="0 0 120 24" fill="none" xmlns="http://www.w3.org/2000/svg">
<path fill-rule="evenodd" clip-rule="evenodd" d="M99.8096 23.6139H93.3431C93.2543 23.6139 93.1823 23.5419 93.1823 23.4531V22.8418C93.1823 22.7848 93.2125 22.732 93.2617 22.7031L94.6622 21.8811V1.77071L93.0117 0.91492C92.9584 0.887265 92.9249 0.832195 92.9249 0.772118V0.160858C92.9249 0.0720186 92.9969 0 93.0858 0H98.3941C98.4829 0 98.5549 0.0720186 98.5549 0.160858V15.2092L102.913 9.79313L101.466 8.95416C101.417 8.92538 101.386 8.87237 101.386 8.81501V8.20375C101.386 8.11491 101.458 8.04289 101.547 8.04289H107.08C107.169 8.04289 107.241 8.11491 107.241 8.20375V8.81501C107.241 8.87797 107.205 8.93514 107.147 8.96131L104.928 9.97568L101.871 13.626L106.585 21.8845L108.152 22.6991C108.205 22.7268 108.239 22.7818 108.239 22.8418V23.4531C108.239 23.5419 108.167 23.6139 108.078 23.6139H101.29C101.201 23.6139 101.129 23.5419 101.129 23.4531V22.8418C101.129 22.7884 101.155 22.7384 101.199 22.7085L102.266 21.9878L98.5549 15.5011V21.8832L99.8937 22.7047C99.9414 22.734 99.9705 22.7859 99.9705 22.8418V23.4531C99.9705 23.5419 99.8984 23.6139 99.8096 23.6139Z" fill="#111111"/>
<path fill-rule="evenodd" clip-rule="evenodd" d="M111.63 15.4463L119.476 15.6353C119.519 15.6364 119.561 15.6199 119.592 15.5896C119.623 15.5594 119.64 15.5179 119.64 15.4745V14.6059C119.64 12.4434 119.128 10.6985 118.166 9.49088C117.199 8.27848 115.791 7.62467 114.043 7.62467C110.29 7.62467 107.544 10.8805 107.544 15.6354C107.544 18.489 108.208 20.5826 109.388 21.965C110.571 23.3512 112.252 24 114.236 24C115.52 24 116.566 23.6616 117.428 23.0623C118.287 22.4644 118.954 21.6133 119.493 20.601C119.508 20.5731 119.514 20.5415 119.511 20.51L119.414 19.5127C119.406 19.4302 119.337 19.3673 119.254 19.3673H118.804C118.752 19.3673 118.703 19.3923 118.673 19.4344C117.464 21.121 116.316 21.9088 114.879 21.9088C113.46 21.9088 112.447 20.9499 112.01 19.3883L112.01 19.3874C111.822 18.7299 111.63 17.4586 111.63 15.9249V15.4463ZM111.664 14.1148L115.747 13.9062C115.739 13.1836 115.677 12.0242 115.588 11.2819C115.493 10.6478 115.329 10.0825 115.048 9.67889C114.774 9.28427 114.388 9.04022 113.817 9.04022C113.3 9.04022 112.91 9.2881 112.607 9.69169C112.301 10.0996 112.09 10.6607 111.948 11.2612C111.801 12.0585 111.68 13.3502 111.664 14.1148Z" fill="#111111"/>
<path fill-rule="evenodd" clip-rule="evenodd" d="M82.2387 15.1614C83.7087 14.3345 85.6004 14.044 87.3685 14.0276V11.4531C87.3685 10.7561 87.1826 10.1689 86.839 9.7588C86.5 9.35418 85.9949 9.10667 85.3182 9.10457C84.1993 9.22901 83.1842 10.0179 82.5598 11.0404L81.761 13.2451C81.7379 13.3088 81.6775 13.3512 81.6098 13.3512H80.902C80.8132 13.3512 80.7411 13.2792 80.7411 13.1903V9.10456C80.7411 9.04971 80.7691 8.99864 80.8153 8.96907C81.6404 8.441 83.6325 7.59249 85.7599 7.59249C87.743 7.59249 89.1177 8.02291 90.0003 8.70374C90.8876 9.38822 91.2613 10.3137 91.2613 11.2601V21.8821L92.6309 22.7039C92.6793 22.733 92.709 22.7853 92.709 22.8418V23.4531C92.709 23.5419 92.637 23.6139 92.5481 23.6139H87.6259C87.537 23.6139 87.465 23.5419 87.465 23.4531V22.1006C86.5155 23.3427 85.1986 23.9678 83.6688 23.9678C82.6327 23.9678 81.6234 23.7214 80.8717 23.0547C80.1163 22.3846 79.6473 21.3137 79.6473 19.7212C79.6473 17.4548 80.7122 16.0201 82.2387 15.1614ZM85.2452 21.6836C86.2465 21.6836 87.025 21.0156 87.3685 20.3886V15.3531C86.1041 15.4196 85.1745 15.7275 84.5544 16.3041C83.9109 16.9025 83.5722 17.8172 83.5722 19.1421C83.5722 20.1469 83.7253 20.7877 84.0005 21.1717C84.2654 21.541 84.6638 21.6989 85.2409 21.6837L85.2452 21.6836Z" fill="#111111"/>
<path d="M69.8794 20.3874C70.6708 21.5174 72.0044 22.5201 73.3057 22.5201C74.0322 22.5201 74.6606 22.3114 75.1044 21.9385C75.5452 21.5681 75.8151 21.0267 75.8151 20.3324C75.8151 19.9349 75.7408 19.6109 75.6009 19.3356C75.4609 19.0603 75.2507 18.8248 74.9665 18.6112C74.3916 18.1791 73.5326 17.8485 72.3877 17.4614C71.3813 17.1528 70.3478 16.7009 69.5653 15.9267C68.7768 15.1466 68.2548 14.0509 68.2548 12.4826C68.2548 11.0099 68.7936 9.78421 69.7006 8.92731C70.6067 8.07133 71.8704 7.59249 73.3057 7.59249C75.3632 7.59249 76.7081 8.11589 77.6284 8.60888C77.6806 8.63688 77.7132 8.69137 77.7132 8.75067V12.9008C77.7132 12.9896 77.6412 13.0617 77.5524 13.0617H76.909C76.8415 13.0617 76.7812 13.0195 76.7579 12.9562L76.0571 11.0449C75.3073 9.95643 74.5085 9.28846 73.2262 9.04025C72.4731 9.04291 71.9167 9.24409 71.5502 9.56707C71.1833 9.89033 70.9894 10.3506 70.9894 10.9062C70.9894 11.6719 71.3002 12.1906 71.8097 12.5983C72.3288 13.0135 73.0514 13.3112 73.8727 13.6172C75.2579 14.0524 76.4453 14.5515 77.2852 15.3499C78.1345 16.1572 78.6141 17.2556 78.6141 18.8525C78.6141 21.5781 76.5809 23.9678 73.2092 23.9678C71.0585 23.9678 69.2318 23.3818 68.149 22.824C68.0954 22.7964 68.0618 22.7412 68.0618 22.681V18.1448C68.0618 18.0559 68.1338 17.9839 68.2226 17.9839H68.9304C68.9989 17.9839 69.0599 18.0273 69.0824 18.092L69.8794 20.3874Z" fill="#111111"/>
<path fill-rule="evenodd" clip-rule="evenodd" d="M66.5999 15.6353L58.7539 15.4463V15.9249C58.7539 17.4586 58.9459 18.7299 59.1337 19.3874L59.134 19.3883C59.5712 20.9499 60.5843 21.9088 62.0032 21.9088C63.4399 21.9088 64.5882 21.121 65.7974 19.4344C65.8276 19.3923 65.8763 19.3673 65.9281 19.3673H66.3785C66.4614 19.3673 66.5307 19.4302 66.5387 19.5127L66.6352 20.51C66.6382 20.5415 66.6319 20.5731 66.6171 20.601C66.0783 21.6133 65.4117 22.4644 64.5522 23.0623C63.6907 23.6616 62.6447 24 61.3598 24C59.3767 24 57.695 23.3512 56.5122 21.965C55.3326 20.5826 54.6681 18.489 54.6681 15.6354C54.6681 10.8805 57.4144 7.62467 61.1667 7.62467C62.9156 7.62467 64.3233 8.27848 65.2898 9.49088C66.2527 10.6985 66.7646 12.4434 66.7646 14.6059V15.4745C66.7646 15.5179 66.7471 15.5594 66.7161 15.5896C66.6851 15.6199 66.6432 15.6364 66.5999 15.6353ZM62.8709 13.9062L58.788 14.1148C58.8047 13.3501 58.9249 12.0583 59.0722 11.261C59.2147 10.6606 59.4252 10.0996 59.7311 9.69169C60.0338 9.2881 60.4242 9.04022 60.9415 9.04022C61.512 9.04022 61.8987 9.28427 62.1727 9.67889C62.4529 10.0824 62.6171 10.6476 62.7124 11.2816C62.8013 12.0239 62.8629 13.1835 62.8709 13.9062Z" fill="#111111"/>
<path fill-rule="evenodd" clip-rule="evenodd" d="M32.9917 21.8811L31.5912 22.7031C31.542 22.732 31.5118 22.7848 31.5118 22.8418V23.4531C31.5118 23.5419 31.5838 23.6139 31.6727 23.6139H38.1392C38.228 23.6139 38.3 23.5419 38.3 23.4531V22.8418C38.3 22.7859 38.271 22.734 38.2233 22.7047L36.8845 21.8832V11.9432C37.1014 11.5372 37.4497 11.0958 37.8741 10.754C38.3112 10.4019 38.8155 10.1662 39.3295 10.1662C39.8642 10.1662 40.2325 10.3107 40.4698 10.5687C40.7095 10.8292 40.8416 11.2334 40.8416 11.807V21.8843L39.5335 22.7056C39.4866 22.735 39.4582 22.7865 39.4582 22.8418V23.4531C39.4582 23.5419 39.5302 23.6139 39.6191 23.6139H45.989C46.0779 23.6139 46.1499 23.5419 46.1499 23.4531V22.8418C46.1499 22.7859 46.1208 22.734 46.0732 22.7047L44.7343 21.8832V11.9122C44.9663 11.4905 45.3148 11.0568 45.7345 10.727C46.1662 10.3879 46.663 10.1662 47.1794 10.1662C47.7141 10.1662 48.0917 10.3108 48.3374 10.5704C48.5846 10.8315 48.7236 11.2355 48.7236 11.807V21.8832L47.3848 22.7047C47.3371 22.734 47.3081 22.7859 47.3081 22.8418V23.4531C47.3081 23.5419 47.3801 23.6139 47.4689 23.6139H53.9032C53.9921 23.6139 54.0641 23.5419 54.0641 23.4531V22.8418C54.0641 22.7848 54.0339 22.732 53.9847 22.7031L52.5842 21.8811V11.3244C52.5842 9.16543 50.8277 7.65684 48.7558 7.65684C47.7931 7.65684 46.9975 7.89837 46.2897 8.37164C45.6602 8.79256 45.1068 9.39233 44.5674 10.1526C44.0838 8.77882 42.7298 7.65684 40.8416 7.65684C39.8611 7.65684 39.0725 7.91545 38.3846 8.39779C37.8189 8.79449 37.3267 9.33874 36.8523 10.0015V8.20376C36.8523 8.11492 36.7803 8.0429 36.6914 8.0429H31.6083C31.5195 8.0429 31.4475 8.11492 31.4475 8.20376V8.81502C31.4475 8.87313 31.4788 8.92673 31.5295 8.95522L32.9917 9.77773V21.8811Z" fill="#111111"/>
<path fill-rule="evenodd" clip-rule="evenodd" d="M20.4717 15.1614C21.9418 14.3345 23.8335 14.044 25.6016 14.0276V11.4531C25.6016 10.7561 25.4156 10.1689 25.0721 9.7588C24.7331 9.35418 24.228 9.10667 23.5512 9.10457C22.4323 9.22901 21.4173 10.0179 20.7929 11.0404L19.9941 13.2451C19.971 13.3088 19.9105 13.3512 19.8428 13.3512H19.1351C19.0462 13.3512 18.9742 13.2792 18.9742 13.1903V9.10456C18.9742 9.04971 19.0021 8.99864 19.0483 8.96907C19.8735 8.441 21.8656 7.59249 23.993 7.59249C25.9761 7.59249 27.3508 8.02291 28.2333 8.70374C29.1206 9.38822 29.4943 10.3137 29.4943 11.2601V21.8821L30.8639 22.7039C30.9124 22.733 30.942 22.7853 30.942 22.8418V23.4531C30.942 23.5419 30.87 23.6139 30.7812 23.6139H25.8589C25.7701 23.6139 25.6981 23.5419 25.6981 23.4531V22.1006C24.7485 23.3427 23.4317 23.9678 21.9018 23.9678C20.8658 23.9678 19.8564 23.7214 19.1047 23.0547C18.3494 22.3846 17.8804 21.3137 17.8804 19.7212C17.8804 17.4548 18.9453 16.0201 20.4717 15.1614ZM23.4782 21.6836C24.4796 21.6836 25.2581 21.0156 25.6016 20.3886V15.3531C24.3372 15.4196 23.4076 15.7275 22.7875 16.3041C22.1439 16.9025 21.8053 17.8172 21.8053 19.1421C21.8053 20.1469 21.9583 20.7877 22.2336 21.1717C22.4984 21.541 22.8969 21.6989 23.474 21.6837L23.4782 21.6836Z" fill="#111111"/>
<path fill-rule="evenodd" clip-rule="evenodd" d="M3.82842 4.3871L13.4001 23.7175C13.4272 23.7723 13.4831 23.807 13.5442 23.807H15.3137C15.4025 23.807 15.4745 23.735 15.4745 23.6461V2.90043L17.4741 1.9468C17.53 1.92011 17.5657 1.86362 17.5657 1.80161V1.15818C17.5657 1.06934 17.4937 0.997323 17.4048 0.997323H11.807C11.7181 0.997323 11.6461 1.06934 11.6461 1.15818V1.80161C11.6461 1.86396 11.6821 1.9207 11.7386 1.94721L13.7694 2.90109V15.0853L6.73893 1.08599C6.71163 1.03163 6.656 0.997323 6.59518 0.997323H0.193029C0.10419 0.997323 0.0321723 1.06934 0.0321723 1.15818V1.80161C0.0321723 1.8651 0.0695122 1.92265 0.12749 1.94851L2.12332 2.83896V21.7102L0.0924717 22.6641C0.0360344 22.6906 0 22.7473 0 22.8097V23.4531C0 23.5419 0.0720191 23.6139 0.160859 23.6139H5.79089C5.87973 23.6139 5.95174 23.5419 5.95174 23.4531V22.8097C5.95174 22.7473 5.91571 22.6906 5.85927 22.6641L3.82842 21.7102V4.3871Z" fill="#111111"/>
</svg>

<svg width="120" height="24" fill="none" xmlns="http://www.w3.org/2000/svg"><path fill-rule="evenodd" clip-rule="evenodd" d="M99.81 23.614h-6.467a.16.16 0 01-.16-.16v-.612c0-.057.03-.11.079-.139l1.4-.822V1.771l-1.65-.856a.16.16 0 01-.087-.143V.161a.16.16 0 01.16-.161h5.31a.16.16 0 01.16.16v15.05l4.358-5.417-1.447-.839a.162.162 0 01-.08-.139v-.611a.16.16 0 01.161-.161h5.533a.16.16 0 01.161.16v.612a.16.16 0 01-.094.146l-2.219 1.015-3.057 3.65 4.714 8.258 1.567.815a.162.162 0 01.087.143v.611a.16.16 0 01-.161.16h-6.788a.16.16 0 01-.161-.16v-.611a.16.16 0 01.07-.133l1.067-.721-3.711-6.487v6.382l1.339.822a.16.16 0 01.076.137v.611a.16.16 0 01-.16.16z" fill="#111"/><path fill-rule="evenodd" clip-rule="evenodd" d="M111.63 15.446l7.846.19a.16.16 0 00.164-.161v-.87c0-2.162-.512-3.907-1.474-5.114-.967-1.213-2.375-1.866-4.123-1.866-3.753 0-6.499 3.255-6.499 8.01 0 2.854.664 4.948 1.844 6.33 1.183 1.386 2.864 2.035 4.848 2.035 1.284 0 2.33-.338 3.192-.938.859-.598 1.526-1.449 2.065-2.461a.16.16 0 00.018-.091l-.097-.997a.16.16 0 00-.16-.146h-.45a.16.16 0 00-.131.067c-1.209 1.687-2.357 2.475-3.794 2.475-1.419 0-2.432-.96-2.869-2.52v-.002c-.188-.657-.38-1.928-.38-3.462v-.479zm.034-1.331l4.083-.209a28.937 28.937 0 00-.159-2.624c-.095-.634-.259-1.2-.54-1.603-.274-.395-.66-.639-1.231-.639-.517 0-.907.248-1.21.652-.306.408-.517.969-.659 1.57a21.585 21.585 0 00-.284 2.853zm-29.425 1.046c1.47-.826 3.361-1.117 5.13-1.133v-2.575c0-.697-.186-1.284-.53-1.694-.339-.405-.844-.652-1.52-.654-1.12.124-2.135.913-2.76 1.935l-.798 2.205a.16.16 0 01-.151.106h-.708a.16.16 0 01-.16-.16V9.104a.16.16 0 01.073-.136c.825-.528 2.817-1.377 4.945-1.377 1.983 0 3.358.43 4.24 1.112a3.137 3.137 0 011.261 2.556v10.622l1.37.822a.161.161 0 01.078.138v.611a.16.16 0 01-.16.16h-4.923a.16.16 0 01-.161-.16V22.1c-.95 1.242-2.266 1.867-3.796 1.867-1.036 0-2.046-.247-2.797-.913-.756-.67-1.225-1.741-1.225-3.334 0-2.266 1.065-3.7 2.592-4.56zm3.006 6.523c1.001 0 1.78-.668 2.123-1.295v-5.036c-1.264.067-2.194.374-2.814.951-.643.599-.982 1.513-.982 2.838 0 1.005.153 1.646.428 2.03.265.369.664.527 1.24.512h.005z" fill="#111"/><path d="M69.88 20.387c.79 1.13 2.124 2.133 3.426 2.133.726 0 1.355-.209 1.798-.581.441-.37.711-.912.711-1.607 0-.397-.074-.721-.214-.996a2.09 2.09 0 00-.635-.725c-.574-.432-1.433-.762-2.578-1.15-1.007-.308-2.04-.76-2.823-1.534-.788-.78-1.31-1.876-1.31-3.444 0-1.473.539-2.699 1.446-3.556.906-.856 2.17-1.335 3.605-1.335 2.057 0 3.402.524 4.322 1.017a.16.16 0 01.085.142v4.15a.16.16 0 01-.16.16h-.644a.161.161 0 01-.151-.105l-.7-1.911c-.75-1.089-1.55-1.757-2.832-2.005-.753.003-1.31.204-1.676.527-.367.323-.56.784-.56 1.34 0 .765.31 1.284.82 1.691.519.415 1.241.713 2.063 1.02 1.385.434 2.572.934 3.412 1.732.85.807 1.33 1.906 1.33 3.502 0 2.726-2.034 5.116-5.406 5.116-2.15 0-3.977-.586-5.06-1.144a.16.16 0 01-.087-.143v-4.536a.16.16 0 01.16-.161h.708a.16.16 0 01.152.108l.797 2.295z" fill="#111"/><path fill-rule="evenodd" clip-rule="evenodd" d="M66.6 15.635l-7.846-.189v.479c0 1.534.192 2.805.38 3.462v.001c.437 1.562 1.45 2.52 2.87 2.52 1.436 0 2.584-.787 3.793-2.474a.16.16 0 01.131-.067h.45a.16.16 0 01.16.146l.097.997a.161.161 0 01-.018.091c-.539 1.012-1.205 1.863-2.065 2.461-.861.6-1.907.938-3.192.938-1.983 0-3.665-.649-4.848-2.035-1.18-1.382-1.844-3.476-1.844-6.33 0-4.755 2.746-8.01 6.499-8.01 1.749 0 3.156.653 4.123 1.866.963 1.207 1.475 2.952 1.475 5.115v.869a.16.16 0 01-.165.16zm-3.73-1.729l-4.082.209a21.75 21.75 0 01.284-2.854c.143-.6.353-1.161.66-1.57.302-.403.692-.65 1.21-.65.57 0 .957.243 1.23.638.28.403.445.969.54 1.603.09.742.15 1.902.159 2.624zm-29.878 7.975l-1.4.822a.16.16 0 00-.08.139v.611c0 .089.072.16.16.16h6.467a.16.16 0 00.161-.16v-.611a.16.16 0 00-.077-.137l-1.338-.822v-9.94a4.01 4.01 0 01.99-1.189c.436-.352.94-.588 1.455-.588.534 0 .903.145 1.14.403.24.26.372.664.372 1.238v10.077l-1.309.822a.16.16 0 00-.075.136v.611c0 .089.072.16.161.16h6.37a.16.16 0 00.16-.16v-.611a.161.161 0 00-.076-.137l-1.339-.822v-9.97a3.99 3.99 0 011-1.186c.432-.34.929-.56 1.445-.56.535 0 .913.144 1.158.403.248.261.387.665.387 1.237v10.076l-1.34.822a.16.16 0 00-.076.137v.611c0 .089.072.16.16.16h6.435a.16.16 0 00.161-.16v-.611a.16.16 0 00-.08-.139l-1.4-.822V11.324c0-2.159-1.756-3.667-3.828-3.667-.963 0-1.758.241-2.466.715-.63.42-1.183 1.02-1.723 1.78-.483-1.373-1.837-2.495-3.725-2.495-.98 0-1.77.258-2.457.74-.566.397-1.058.942-1.533 1.604V8.204a.16.16 0 00-.16-.161h-5.084a.16.16 0 00-.16.16v.612a.16.16 0 00.081.14l1.463.823V21.88zm-12.52-6.72c1.47-.826 3.361-1.117 5.13-1.133v-2.575c0-.697-.186-1.284-.53-1.694-.339-.405-.844-.652-1.52-.654-1.12.124-2.135.913-2.76 1.935l-.798 2.205a.161.161 0 01-.151.106h-.708a.16.16 0 01-.16-.16V9.104a.16.16 0 01.073-.136c.826-.528 2.818-1.377 4.945-1.377 1.983 0 3.358.43 4.24 1.112a3.137 3.137 0 011.261 2.556v10.622l1.37.822a.16.16 0 01.078.138v.611a.16.16 0 01-.16.16h-4.923a.16.16 0 01-.16-.16V22.1c-.95 1.242-2.267 1.867-3.797 1.867-1.036 0-2.046-.247-2.797-.913-.756-.67-1.225-1.741-1.225-3.334 0-2.266 1.065-3.7 2.592-4.56zm3.006 6.523c1.002 0 1.78-.668 2.124-1.295v-5.036c-1.265.067-2.194.374-2.814.951-.644.599-.983 1.513-.983 2.838 0 1.005.153 1.646.429 2.03.264.369.663.527 1.24.512h.004zM3.828 4.387l9.572 19.33a.16.16 0 00.144.09h1.77a.16.16 0 00.16-.16V2.9l2-.953a.161.161 0 00.092-.145v-.644a.16.16 0 00-.161-.16h-5.598a.16.16 0 00-.16.16v.644c0 .062.035.119.092.145l2.03.954v12.184L6.74 1.086a.16.16 0 00-.144-.089H.193a.16.16 0 00-.16.161v.644a.16.16 0 00.094.147l1.996.89V21.71l-2.03.954A.16.16 0 000 22.81v.643c0 .089.072.16.16.16h5.63a.16.16 0 00.162-.16v-.643a.16.16 0 00-.093-.146l-2.03-.954V4.387z" fill="#111"/></svg>
